X:1
T:Title
%%score { 1 | 2 }
L:1/8
M:4/4
K:E
V:1 treble nm="Grand Piano"
V:2 bass 
V:1
 z2[Q:1/4=92] B,2 E2 D2 | E2 F2 G2 [CFA]2 | [B,DF]2 B2 B2 B2 | B2 [F^B]2 [Ec]2 [CEc]2 | %4
[M:1/4] [B,DF]2 |[M:3/4] B,2 E2 D2 |[M:4/4] E2 F2 G2 [E^A]2 | [DB]2 [DB]2 [Gc]2 [G=d]2 | %8
 d2 d2 e2 c2 |[M:1/4] [DB]2 |[M:3/4] B2 B2 A2 |[M:4/4] G2 [EB]2 [Ee]2 [E=d]2 | [Ec]2 [Ec]2 c2 B2 | %13
 A2 G2 F2 E2 |[M:1/4] D2 |[M:3/4] B,2 E2 D2 |[M:4/4] E2 F2 G2 [CFA]2 | %17
 [B,DF]2 [B,DB]2 [B,EB]2 [=DEB]2 | [CEB]2 [CFA]2 [EG]2 [A,DF]2 |[M:1/4] [G,E]2 |] %20
V:2
 z2 B,,2 [E,G,B,]2 [F,A,B,]2 | [G,B,]2 [D,B,]2 [E,B,E]2 A,,2 | B,,2 [A,B,D]2 [G,B,E]2 [F,A,D]2 | %3
 [E,G,E]2 [D,G,]2 [C,G,]2 A,,2 |[M:1/4] B,,2 |[M:3/4] B,,2 [E,G,B,]2 [F,A,B,]2 | %6
[M:4/4] [G,B,]2 [D,A,B,]2 [E,G,B,]2 [C,E,]2 | [B,,F,]2 [B,,B,]2 [E,B,]2 [^E,B,]2 | %8
 [F,B,F]2 [F,B,F]2 [F,^A,F]2 [F,A,E]2 |[M:1/4] [B,,B,]2 |[M:3/4] [B,,B,]2 [G,B,E]2 [F,B,D]2 | %11
[M:4/4] [E,B,E]2 [=D,G,]2 [C,A,]2 [B,,G,]2 | [A,,A,]2 [A,,A,]2[K:treble] [A,CE]2 [G,C^E]2 | %13
 [F,CF]2 [G,B,^E]2 [A,C]2[K:bass] [^A,C]2 |[M:1/4] B,2 |[M:3/4] B,,2 [E,G,B,]2 [F,A,B,]2 | %16
[M:4/4] [G,B,]2 [D,B,]2 [E,B,E]2 A,,2 | B,,2 A,2 G,2 G,2 | A,2 F,2 B,2 B,,2 |[M:1/4] E,2 |] %20

